X: 1
T: Scordiness
C: Charlie Sherritt
%D:
R: reel
S: Fiddle Hell Online 2022-4-7 handout for Andreq Beaton workshop
Z: 2022 John Chambers <jc:trillian.mit.edu>
M: 4/4
L: 1/8
K: D
G |\
F2DF ADFA | dfec dAAd | B2GB EBGB | (c/d/e) Ac ecAG |
F2DF ADFA | dfec dAAd | (B/c/d) GB AdFA | GBAG FD D :|
|: g |\
f2df afdB | Acde fddf | e2Be gfed | (c/d/e) dB cAAg |
f2df afdB | Acde fddc | (B/c/d) GB AdFA | GBAG FD D :|
